dist/svgs/crypto-icons/icons/exp.svg

<?xml version="1.0" encoding="UTF-8" standalone="yes"?>
<svg xmlns="http://www.w3.org/2000/svg" xmlns:xlink="http://www.w3.org/1999/xlink" width="436px" height="510.66666666666663px" viewBox="0 0 327 383" version="1.1">
  <g id="surface1">
    <path style=" stroke:none;fill-rule:evenodd;fill:rgb(0%,0%,0%);fill-opacity:1;" d="M 327 99.84375 L 327 283.753906 L 326.601562 285.152344 L 326.601562 285.550781 C 326.601562 285.820312 326.464844 286.152344 326.199219 286.550781 C 325.933594 286.949219 325.664062 287.28125 325.398438 287.550781 C 325.132812 287.550781 324.933594 287.617188 324.796875 287.75 L 324.199219 288.347656 L 167.300781 382.203125 L 166.5 382.203125 C 165.96875 382.203125 165.5 382.335938 165.101562 382.601562 C 164.699219 382.867188 164.367188 383 164.101562 383 C 163.566406 383 163.101562 382.933594 162.699219 382.800781 C 162.300781 382.667969 161.964844 382.601562 161.699219 382.601562 L 160.5 382.601562 L 2.800781 288.347656 C 2.535156 288.347656 2.335938 288.214844 2.203125 287.949219 C 2.066406 287.683594 1.867188 287.550781 1.601562 287.550781 C 1.335938 287.28125 1.066406 286.949219 0.800781 286.550781 C 0.535156 286.152344 0.398438 285.820312 0.398438 285.550781 L 0.398438 285.152344 C 0.132812 284.621094 0 284.15625 0 283.753906 L 0 98.84375 L 0.398438 97.449219 L 0.398438 97.046875 C 0.398438 96.78125 0.535156 96.449219 0.800781 96.050781 C 1.066406 95.648438 1.335938 95.316406 1.601562 95.050781 C 1.867188 95.050781 2.066406 94.984375 2.203125 94.851562 L 2.800781 94.253906 L 160.5 0.398438 L 161.699219 0.398438 C 161.964844 0.398438 162.300781 0.332031 162.699219 0.199219 C 163.101562 0.0664062 163.566406 0 164.101562 0 C 164.367188 0 164.699219 0.0664062 165.101562 0.199219 C 165.5 0.332031 165.96875 0.398438 166.5 0.398438 L 167.300781 0.398438 L 323.796875 94.253906 C 324.066406 94.253906 324.265625 94.320312 324.398438 94.453125 L 325 95.050781 L 325.800781 95.851562 L 326.199219 97.046875 L 326.199219 97.449219 C 326.464844 97.714844 326.667969 98.113281 326.800781 98.644531 C 326.933594 99.179688 327 99.578125 327 99.84375 Z M 13.207031 270.777344 L 86.453125 227.242188 C 83.785156 221.917969 81.648438 216.128906 80.050781 209.871094 C 78.449219 203.613281 77.648438 197.023438 77.648438 190.101562 C 77.648438 183.710938 78.382812 177.523438 79.847656 171.53125 C 81.316406 165.539062 83.25 159.75 85.652344 154.160156 L 85.652344 154.558594 L 13.207031 111.824219 Z M 240.546875 227.242188 L 313.792969 270.777344 L 313.792969 111.824219 L 241.746094 154.957031 C 244.148438 160.28125 246.015625 165.875 247.351562 171.730469 C 248.683594 177.589844 249.351562 183.710938 249.351562 190.101562 C 249.351562 196.757812 248.550781 203.28125 246.949219 209.671875 C 245.351562 216.0625 243.214844 222.050781 240.546875 227.644531 Z M 233.742188 238.824219 C 226.539062 248.941406 217.53125 257.265625 206.726562 263.785156 C 195.917969 270.308594 183.980469 274.238281 170.90625 275.566406 L 170.503906 275.566406 L 170.503906 364.230469 L 306.988281 282.757812 Z M 156.894531 364.230469 L 156.894531 275.566406 C 143.554688 274.503906 131.347656 270.710938 120.273438 264.1875 C 109.199219 257.664062 100.0625 249.34375 92.855469 239.226562 L 19.613281 282.757812 Z M 91.65625 142.976562 C 98.859375 132.058594 108.132812 123.207031 119.472656 116.417969 C 130.8125 109.628906 143.289062 105.703125 156.894531 104.636719 L 157.296875 104.636719 L 157.296875 18.371094 L 19.613281 99.84375 Z M 170.90625 18.371094 L 170.90625 105.035156 C 184.246094 106.101562 196.453125 110.027344 207.527344 116.816406 C 218.601562 123.605469 227.605469 132.324219 234.542969 142.976562 L 234.945312 143.375 L 306.988281 99.84375 Z M 170.90625 18.371094 "/>
  </g>
</svg>

<svg xmlns="http://www.w3.org/2000/svg" viewBox="0 0 327 383"><path fill-rule="evenodd" d="M327 99.844v183.91l-.398 1.398v.399c0 .27-.137.601-.403 1-.265.398-.535.73-.8 1-.266 0-.465.066-.602.199l-.598.598-156.898 93.855h-.801c-.531 0-1 .133-1.398.399-.403.265-.735.398-1 .398-.536 0-1-.066-1.403-.2-.398-.132-.734-.198-1-.198H160.5L2.8 288.348c-.265 0-.464-.133-.597-.399-.137-.265-.336-.398-.601-.398a6.781 6.781 0 01-.801-1c-.266-.399-.403-.73-.403-1v-.399c-.265-.53-.398-.996-.398-1.398V98.844l.398-1.395v-.402c0-.266.137-.598.403-.996.265-.403.535-.735.8-1 .266 0 .465-.067.602-.2l.598-.597L160.5.398h1.2c.265 0 .6-.066 1-.199.402-.133.866-.199 1.402-.199.265 0 .597.066 1 .2.398.132.867.198 1.398.198h.8l156.497 93.856c.27 0 .469.066.601.2l.602.597.8.8.4 1.196v.402c.265.266.468.664.6 1.196.134.535.2.933.2 1.199zM13.207 270.777l73.246-43.535c-2.668-5.324-4.805-11.113-6.402-17.37-1.602-6.259-2.403-12.849-2.403-19.77 0-6.391.735-12.579 2.2-18.57a110.572 110.572 0 015.804-17.372v.399l-72.445-42.735zm227.34-43.535l73.246 43.535V111.824l-72.047 43.133c2.402 5.324 4.27 10.918 5.606 16.773 1.332 5.86 2 11.98 2 18.372 0 6.656-.801 13.18-2.403 19.57-1.597 6.39-3.734 12.379-6.402 17.973zm-6.805 11.582c-7.203 10.117-16.21 18.442-27.015 24.961-10.809 6.524-22.747 10.453-35.82 11.781h-.403v88.664l136.484-81.472zM156.895 364.23v-88.664c-13.34-1.062-25.547-4.855-36.622-11.378-11.074-6.524-20.21-14.844-27.418-24.961l-73.242 43.53zM91.656 142.977c7.203-10.918 16.477-19.77 27.817-26.559 11.34-6.79 23.816-10.715 37.422-11.781h.402V18.37L19.613 99.844zm79.25-124.606v86.664c13.34 1.067 25.547 4.992 36.621 11.781 11.075 6.79 20.078 15.508 27.016 26.16l.402.399 72.043-43.531zm0 0"/></svg>
